X:15
T:Old Glanville. JJo8.015
%%VWML:JohnsonVol8-2184-p8-0
F:http://www.vwml.org/record/JohnsonVol8/2184/p8
Z:Transcribed by Simon Furey and Lewis Jones
Z:vmp.Simon Wilson 2013 www.village-music-project.org.uk
Z:Dance added by John Chambers 2017
M:6/8
L:1/8
%Q:3/8=120
K:G
|:\
g2dg2b | agfg3 | efg dBG | cAF GBd |\
g2dg2b | agfg3 | efg afd | ge^cd3 :|
|:\
d2=fB2d | c2eA2c | Bgf edc | BAG FED |\
geg ^fdf | geg fdB | cde dBG | cAFG3 :|
W: Set and hands 3 round with the 2d Wo. ;|
W:the same with the 2d Man :| Cross over
W:and half figure :||. Right hands and Left
W::||: foot it at both Corners and turn :|
W:Lead out on both sides and turn :||:
W:
T:Folly of Youth. JJo8.016, The
B:J.Johnson Choice Collection Vol 8 1758
Z:vmp.Simon Wilson 2013 www.village-music-project.org.uk
Z:Dance added by John Chambers 2017
M:C|
L:1/8
%Q:1/2=100
K:A
|: e2cA f2dB | ceac BGFE | e2cA f2dB | gefg a2A2 :|
|: B2GE c2AF | dcBA GBeg | a2ec f2dB | ceEG A2A,2 :|
W: Cast off two Cu. .| half figure
W:up to the top :| 1st Man
W:set to the 2d Wo. and turn :||.
W:1st Wo. and 2d Man the same :||:
W:Cross over two Cu. .| Lead up to
W:the top and cast off :| hands 4
W:round at Bottom :||. Right hands
W:and Left at top :||:
W:
